rospo-newyear-dark/symbolic/devices/drive-harddisk-usb-symbolic.svg

<svg height="16" width="16" xmlns="http://www.w3.org/2000/svg"><path d="m8 0-2.5 4h1.5v5h-3v-1.2695c.62-.36 1-1.0205 1-1.7305 0-1.1-.9-2-2-2s-2 .9-2 2c0 .71.38 1.3705 1 1.7305v1.2695c0 2 2 2 2 2h3v1.27c-.62.36-1 1.02-1 1.73 0 1.1.9 2 2 2s2-.9 2-2c0-.71-.38-1.37-1-1.73v-1.27h3s2 0 2-2v-1c .554 0 1-.446 1-1v-2c0-.554-.446-1-1-1h-2c-.554 0-1 .446-1 1v2c0 .554.446 1 1 1v1h-3v-5h1.5z" fill="#d3dae3"/></svg>

<svg xmlns="http://www.w3.org/2000/svg" width="16" height="16" version="1.1">
 <path style="fill:#d3dae3" d="M 8,0 5.5,4 H 7 V 9 H 4 V 7.7305 C 4.62,7.3705 5,6.71 5,6 5,4.9 4.1,4 3,4 1.9,4 1,4.9 1,6 1,6.71 1.38,7.3705 2,7.7305 V 9 C 2,11 4,11 4,11 H 7 V 12.27 C 6.38,12.63 6,13.29 6,14 6,15.1 6.9,16 8,16 9.1,16 10,15.1 10,14 10,13.29 9.62,12.63 9,12.27 V 11 H 12 C 12,11 14,11 14,9 V 8 C 14.554,8 15,7.554 15,7 V 5 C 15,4.446 14.554,4 14,4 H 12 C 11.446,4 11,4.446 11,5 V 7 C 11,7.554 11.446,8 12,8 V 9 H 9 V 4 H 10.5 Z"/>
</svg>
